Newaita-dark/actions/32/run-build.svg

<svg height="32" viewBox="0 0 32 32" width="32" xmlns="http://www.w3.org/2000/svg"><g fill="#e0e0e0"><path d="m15.875 5.542969c-5.863281 0-10.582031 4.71875-10.582031 10.582031 0 5.867188 4.71875 10.585938 10.582031 10.585938 5.867188 0 10.585938-4.71875 10.585938-10.585938 0-5.863281-4.71875-10.582031-10.585938-10.582031zm0 2.644531c4.398438 0 7.941406 3.542969 7.941406 7.9375 0 4.398438-3.542968 7.941406-7.941406 7.941406-4.394531 0-7.9375-3.542968-7.9375-7.941406 0-4.394531 3.542969-7.9375 7.9375-7.9375zm0 0"/><path d="m14.554688 2.871094c-.335938 0-.621094.242187-.679688.574218l-.632812 3.796876c.46875-.136719.949218-.238282 1.441406-.300782l.449218-2.699218h1.484376l.449218 2.699218c.496094.0625.976563.164063 1.441406.300782l-.632812-3.796876c-.054688-.332031-.339844-.574218-.675781-.574218zm9.265624 2.746094c-.140624.003906-.277343.046874-.390624.128906l-3.128907 2.234375c.433594.234375.847657.503906 1.234375.804687l2.21875-1.585937 1.050782 1.050781-1.585938 2.21875c.300781.386719.566406.800781.804688 1.234375l2.234374-3.128906c.195313-.273438.164063-.648438-.074218-.882813l-1.871094-1.871094c-.128906-.132812-.308594-.207031-.492188-.203124zm-15.882812 0c-.1875-.003907-.367188.070312-.5.203124l-1.871094 1.871094c-.234375.234375-.265625.609375-.070312.882813l2.234375 3.128906c.234375-.433594.503906-.847656.804687-1.234375l-1.585937-2.21875 1.050781-1.050781 2.21875 1.585937c.386719-.300781.800781-.570312 1.234375-.804687l-3.128906-2.234375c-.113281-.082032-.246094-.125-.386719-.128906zm-.945312 7.878906-3.796876.632812c-.332031.054688-.574218.339844-.574218.675782v2.644531c0 .335937.242187.621093.574218.675781l3.796876.632812c-.136719-.464843-.238282-.945312-.300782-1.441406l-2.699218-.449218v-1.480469l2.699218-.453125c.0625-.492188.164063-.972656.300782-1.4375zm17.769531 0c.136719.464844.238281.945312.300781 1.4375l2.695312.453125v1.480469l-2.695312.449218c-.0625.496094-.164062.976563-.300781 1.441406l3.796875-.632812c.332031-.054688.574218-.339844.574218-.675781v-2.644531c0-.335938-.242187-.621094-.574218-.675782zm-.738281 7.054687c-.238282.433594-.503907.847657-.804688 1.234375l1.585938 2.21875-1.050782 1.050782-2.21875-1.585938c-.386718.300781-.800781.566406-1.234375.804688l3.128907 2.234374c.273437.195313.648437.164063.882812-.074218l1.871094-1.871094c.238281-.234375.269531-.609375.074218-.882812zm-16.292969 0-2.234375 3.128907c-.195313.273437-.164063.648437.070312.882812l1.871094 1.871094c.238281.238281.613281.269531.886719.074218l3.128906-2.234374c-.433594-.238282-.847656-.503907-1.234375-.804688l-2.21875 1.585938-1.050781-1.050782 1.585937-2.21875c-.300781-.386718-.570312-.800781-.804687-1.234375zm5.511719 4.460938.632812 3.796875c.058594.332031.34375.574218.679688.574218h2.644531c.335937 0 .621093-.242187.675781-.574218l.632812-3.796875c-.464843.136719-.945312.238281-1.441406.300781l-.449218 2.699219h-1.484376l-.449218-2.699219c-.492188-.0625-.972656-.164062-1.441406-.300781zm0 0"/><path d="m13.230469 11.496094c-.390625-.015625-.714844.296875-.714844.683594v7.941406c0 .53125.582031.859375 1.039063.585937l6.617187-3.96875c.441406-.265625.441406-.910156 0-1.175781l-6.617187-3.96875c-.097657-.058594-.210938-.09375-.324219-.097656zm0 0"/></g></svg>

<?xml version="1.0" encoding="UTF-8"?>
<svg xmlns="http://www.w3.org/2000/svg" xmlns:xlink="http://www.w3.org/1999/xlink" width="32px" height="32px" viewBox="0 0 32 32" version="1.1">
<g id="surface1">
<path style=" stroke:none;fill-rule:nonzero;fill:rgb(87.843138%,87.843138%,87.843138%);fill-opacity:1;" d="M 15.875 5.542969 C 10.011719 5.542969 5.292969 10.261719 5.292969 16.125 C 5.292969 21.992188 10.011719 26.710938 15.875 26.710938 C 21.742188 26.710938 26.460938 21.992188 26.460938 16.125 C 26.460938 10.261719 21.742188 5.542969 15.875 5.542969 Z M 15.875 8.1875 C 20.273438 8.1875 23.816406 11.730469 23.816406 16.125 C 23.816406 20.523438 20.273438 24.066406 15.875 24.066406 C 11.480469 24.066406 7.9375 20.523438 7.9375 16.125 C 7.9375 11.730469 11.480469 8.1875 15.875 8.1875 Z M 15.875 8.1875 "/>
<path style=" stroke:none;fill-rule:nonzero;fill:rgb(87.843138%,87.843138%,87.843138%);fill-opacity:1;" d="M 14.554688 2.871094 C 14.21875 2.871094 13.933594 3.113281 13.875 3.445312 L 13.242188 7.242188 C 13.710938 7.105469 14.191406 7.003906 14.683594 6.941406 L 15.132812 4.242188 L 16.617188 4.242188 L 17.066406 6.941406 C 17.5625 7.003906 18.042969 7.105469 18.507812 7.242188 L 17.875 3.445312 C 17.820312 3.113281 17.535156 2.871094 17.199219 2.871094 Z M 23.820312 5.617188 C 23.679688 5.621094 23.542969 5.664062 23.429688 5.746094 L 20.300781 7.980469 C 20.734375 8.214844 21.148438 8.484375 21.535156 8.785156 L 23.753906 7.199219 L 24.804688 8.25 L 23.21875 10.46875 C 23.519531 10.855469 23.785156 11.269531 24.023438 11.703125 L 26.257812 8.574219 C 26.453125 8.300781 26.421875 7.925781 26.183594 7.691406 L 24.3125 5.820312 C 24.183594 5.6875 24.003906 5.613281 23.820312 5.617188 Z M 7.9375 5.617188 C 7.75 5.613281 7.570312 5.6875 7.4375 5.820312 L 5.566406 7.691406 C 5.332031 7.925781 5.300781 8.300781 5.496094 8.574219 L 7.730469 11.703125 C 7.964844 11.269531 8.234375 10.855469 8.535156 10.46875 L 6.949219 8.25 L 8 7.199219 L 10.21875 8.785156 C 10.605469 8.484375 11.019531 8.214844 11.453125 7.980469 L 8.324219 5.746094 C 8.210938 5.664062 8.078125 5.621094 7.9375 5.617188 Z M 6.992188 13.496094 L 3.195312 14.128906 C 2.863281 14.183594 2.621094 14.46875 2.621094 14.804688 L 2.621094 17.449219 C 2.621094 17.785156 2.863281 18.070312 3.195312 18.125 L 6.992188 18.757812 C 6.855469 18.292969 6.753906 17.8125 6.691406 17.316406 L 3.992188 16.867188 L 3.992188 15.386719 L 6.691406 14.933594 C 6.753906 14.441406 6.855469 13.960938 6.992188 13.496094 Z M 24.761719 13.496094 C 24.898438 13.960938 25 14.441406 25.0625 14.933594 L 27.757812 15.386719 L 27.757812 16.867188 L 25.0625 17.316406 C 25 17.8125 24.898438 18.292969 24.761719 18.757812 L 28.558594 18.125 C 28.890625 18.070312 29.132812 17.785156 29.132812 17.449219 L 29.132812 14.804688 C 29.132812 14.46875 28.890625 14.183594 28.558594 14.128906 Z M 24.023438 20.550781 C 23.785156 20.984375 23.519531 21.398438 23.21875 21.785156 L 24.804688 24.003906 L 23.753906 25.054688 L 21.535156 23.46875 C 21.148438 23.769531 20.734375 24.035156 20.300781 24.273438 L 23.429688 26.507812 C 23.703125 26.703125 24.078125 26.671875 24.3125 26.433594 L 26.183594 24.5625 C 26.421875 24.328125 26.453125 23.953125 26.257812 23.679688 Z M 7.730469 20.550781 L 5.496094 23.679688 C 5.300781 23.953125 5.332031 24.328125 5.566406 24.5625 L 7.4375 26.433594 C 7.675781 26.671875 8.050781 26.703125 8.324219 26.507812 L 11.453125 24.273438 C 11.019531 24.035156 10.605469 23.769531 10.21875 23.46875 L 8 25.054688 L 6.949219 24.003906 L 8.535156 21.785156 C 8.234375 21.398438 7.964844 20.984375 7.730469 20.550781 Z M 13.242188 25.011719 L 13.875 28.808594 C 13.933594 29.140625 14.21875 29.382812 14.554688 29.382812 L 17.199219 29.382812 C 17.535156 29.382812 17.820312 29.140625 17.875 28.808594 L 18.507812 25.011719 C 18.042969 25.148438 17.5625 25.25 17.066406 25.3125 L 16.617188 28.011719 L 15.132812 28.011719 L 14.683594 25.3125 C 14.191406 25.25 13.710938 25.148438 13.242188 25.011719 Z M 13.242188 25.011719 "/>
<path style=" stroke:none;fill-rule:nonzero;fill:rgb(87.843138%,87.843138%,87.843138%);fill-opacity:1;" d="M 13.230469 11.496094 C 12.839844 11.480469 12.515625 11.792969 12.515625 12.179688 L 12.515625 20.121094 C 12.515625 20.652344 13.097656 20.980469 13.554688 20.707031 L 20.171875 16.738281 C 20.613281 16.472656 20.613281 15.828125 20.171875 15.5625 L 13.554688 11.59375 C 13.457031 11.535156 13.34375 11.5 13.230469 11.496094 Z M 13.230469 11.496094 "/>
</g>
</svg>
